X: 327
T:Fasten The Leg In Her
M:6/8
L:1/8
R:Jig
B:O'Neill's 1001
N:This version is approximately
N:Cormac Breatnach's on his 'Musical Journey' CD
Z:Steve Mansfield March 2001
K:G
BA | B2B BAB | GBd gdB | A2A AGA | Bed dBA |
B2B BAB | GBd g2f | efg fag | fdd d::
ef | gag fgf | ege dBA | GGG AGA | BeB def |
gag fgf | ege dBA | efg eag| fdd d :|

